img/image/design/logo.svg

<svg xmlns="http://www.w3.org/2000/svg" fill="none" viewBox="0 0.96 89.01 43.85">
<path fill-rule="evenodd" clip-rule="evenodd" d="M40.4407 44.803C37.8314 37.8009 34.9256 23.0662 42.2582 19.9667C52.7436 15.5346 52.7556 38.5919 39.1668 28.918C39.7917 32.4693 42.9819 33.7429 47.3206 33.2133C56.2035 32.0403 55.2033 16.5964 43.9447 17.0589C31.0156 17.5898 33.5902 41.9301 40.4407 44.803Z" fill="#74271D"/>
<path fill-rule="evenodd" clip-rule="evenodd" d="M70.1651 28.7813C68.1874 29.7385 68.5399 29.9061 66.2725 30.8619C58.6474 33.212 55.3504 25.2769 59.1709 21.3248C65.6568 14.615 73.3914 25.9955 62.3558 26.4728L59.5101 26.9326C63.4374 29.2492 71.0478 27.9407 70.2038 21.8449C69.4907 16.6956 62.1515 15.5521 58.3416 18.7615C54.469 22.0232 54.0844 28.5842 58.1293 31.6864C62.1408 34.7631 69.4694 33.5472 70.1651 28.7813Z" fill="#74271D"/>
<path fill-rule="evenodd" clip-rule="evenodd" d="M23.0527 2.43282C26.5848 3.74797 29.8004 6.51098 31.8195 9.68289C33.4941 12.3132 34.4409 15.3497 34.2459 18.4894C33.422 31.7347 22.1954 36.4497 10.5936 36.1668L9.58275 36.1427L8.92174 35.3732C4.89156 30.6837 0.524864 24.9298 0.0614871 18.5122C-0.335121 13.0251 1.14849 7.52449 5.63403 4.04424C10.635 0.164491 17.3653 0.314641 23.0541 2.43416L23.0527 2.43282Z" fill="#74271D"/>
<path fill-rule="evenodd" clip-rule="evenodd" d="M22.2597 4.58043C27.2033 6.42244 32.3605 12.0624 31.9693 18.3459C31.0265 33.4989 15.2076 33.9869 10.6486 33.877C7.96712 30.7574 2.79385 24.6884 2.33582 18.3459C1.43577 5.8929 11.3309 0.508973 22.2597 4.58043Z" fill="#E84F22"/>
<path fill-rule="evenodd" clip-rule="evenodd" d="M10.9382 5.11935C12.4552 9.76995 25.6114 15.8041 30.1877 14.2208C27.3594 6.78708 17.4602 2.92743 10.9382 5.11935Z" fill="#FFCBA1"/>
<path fill-rule="evenodd" clip-rule="evenodd" d="M80.5742 27.8215C80.5635 27.8375 80.5528 27.8536 80.5421 27.8711C80.3659 28.1405 80.1909 28.41 80.0147 28.6795C79.8678 28.9033 79.7195 29.1272 79.5673 29.3484C79.4578 29.5066 79.3483 29.6688 79.2228 29.815C78.5204 30.6341 77.8006 31.4411 76.9419 32.0994C75.9938 32.8273 74.9215 33.3341 73.7103 33.3636C73.5648 33.3676 73.4192 33.3596 73.275 33.3488C73.1642 33.3408 73.0533 33.3314 72.9438 33.3126C72.8397 33.2939 72.6968 33.2603 72.6861 33.1303C72.6807 33.0673 72.7168 33.0123 72.7675 32.9788C74.5543 31.8138 76.094 30.3579 77.3599 28.6366C77.8246 28.0051 78.2466 27.3442 78.6365 26.6645C78.8929 26.2154 79.132 25.7582 79.3777 25.3024C79.1333 24.848 78.8943 24.3895 78.6365 23.9404C78.2466 23.2607 77.8246 22.5997 77.3599 21.9683C76.094 20.2483 74.5543 18.791 72.7675 17.626C72.7155 17.5925 72.6807 17.5376 72.6861 17.4746C72.6968 17.3445 72.8397 17.311 72.9438 17.2922C73.0533 17.2721 73.1642 17.2627 73.275 17.256C73.4192 17.2467 73.5661 17.2386 73.7103 17.2413C74.9215 17.2694 75.9925 17.7762 76.9419 18.5055C77.7993 19.1637 78.5204 19.9721 79.2228 20.7899C79.3483 20.936 79.4578 21.0982 79.5673 21.2564C79.7195 21.4776 79.8678 21.7015 80.0147 21.9254C80.1909 22.1949 80.3659 22.4643 80.5421 22.7338C80.5528 22.7499 80.5635 22.766 80.5742 22.7834C80.5849 22.7673 80.5955 22.7512 80.6062 22.7338C80.7825 22.4643 80.9574 22.1949 81.1337 21.9254C81.2806 21.7015 81.4288 21.4776 81.5811 21.2564C81.6906 21.0982 81.8001 20.936 81.9256 20.7899C82.628 19.9708 83.3478 19.1637 84.2064 18.5055C85.1545 17.7775 86.2268 17.2708 87.438 17.2413C87.5836 17.2373 87.7292 17.2453 87.8734 17.256C87.9842 17.2641 88.095 17.2735 88.2045 17.2922C88.3087 17.311 88.4516 17.3445 88.4623 17.4746C88.4676 17.5376 88.4316 17.5925 88.3808 17.626C86.5941 18.791 85.0544 20.247 83.7884 21.9683C83.3237 22.5997 82.9017 23.2607 82.5118 23.9404C82.2554 24.3895 82.0164 24.8466 81.7707 25.3024C82.0151 25.7569 82.2541 26.2154 82.5118 26.6645C82.9017 27.3442 83.3237 28.0051 83.7884 28.6366C85.0544 30.3566 86.5941 31.8138 88.3808 32.9788C88.4329 33.0123 88.4676 33.0673 88.4623 33.1303C88.4516 33.2603 88.3087 33.2939 88.2045 33.3126C88.095 33.3327 87.9842 33.3421 87.8734 33.3488C87.7292 33.3582 87.5823 33.3663 87.438 33.3636C86.2268 33.3354 85.1559 32.8287 84.2064 32.0994C83.3491 31.4411 82.628 30.6327 81.9256 29.815C81.8001 29.6688 81.6906 29.5066 81.5811 29.3484C81.4288 29.1272 81.2806 28.9033 81.1337 28.6795C80.9574 28.41 80.7825 28.1405 80.6062 27.8711C80.5955 27.855 80.5849 27.8389 80.5742 27.8215Z" fill="#74271D"/>
<path d="M37.7727 9.35168V9.87587H38.8984V12.9767H39.5474V9.87587H40.6745V9.35168H37.7727Z" fill="#74271D"/>
<path d="M42.6816 9.2699C41.6814 9.2699 40.8909 9.98177 40.8909 11.195C40.8909 12.3413 41.644 13.0598 42.6215 13.0598C43.4949 13.0598 44.4189 12.4753 44.4189 11.1347C44.4189 10.026 43.7179 9.2699 42.6803 9.2699H42.6816ZM42.6669 9.76459C43.4428 9.76459 43.7486 10.5435 43.7486 11.1575C43.7486 11.9739 43.2785 12.5651 42.6522 12.5651C42.0113 12.5651 41.5559 11.9659 41.5559 11.1722C41.5559 10.4832 41.8911 9.76459 42.6669 9.76459Z" fill="#74271D"/>
<path d="M45.2481 14.4594H45.8971V12.4901H45.9118C46.1281 12.8494 46.5461 13.0598 47.0228 13.0598C47.8735 13.0598 48.664 12.4163 48.664 11.1119C48.664 10.0113 48.007 9.2699 47.135 9.2699C46.5461 9.2699 46.1201 9.53266 45.8517 9.97372H45.837L45.8077 9.35168H45.2188C45.2334 9.69621 45.2481 10.0702 45.2481 10.5354V14.4594ZM45.8971 10.8786C45.8971 10.7888 45.9198 10.691 45.9425 10.6092C46.0694 10.1145 46.4874 9.79274 46.9347 9.79274C47.6291 9.79274 48.0097 10.4148 48.0097 11.1414C48.0097 11.9726 47.6064 12.5423 46.9133 12.5423C46.4433 12.5423 46.048 12.2273 45.9292 11.7715C45.9145 11.6897 45.8998 11.5999 45.8998 11.502V10.88L45.8971 10.8786Z" fill="#74271D"/>
<path d="M49.4773 9.35168V12.9767H50.1263V9.88391H51.694V9.35168H49.4773Z" fill="#74271D"/>
<path d="M53.7451 9.2699C52.7449 9.2699 51.9543 9.98177 51.9543 11.195C51.9543 12.3413 52.7075 13.0598 53.685 13.0598C54.5583 13.0598 55.4824 12.4753 55.4824 11.1347C55.4824 10.026 54.7813 9.2699 53.7438 9.2699H53.7451ZM53.7304 9.76459C54.5063 9.76459 54.8121 10.5435 54.8121 11.1575C54.8121 11.9739 54.342 12.5651 53.7157 12.5651C53.0747 12.5651 52.6194 11.9659 52.6194 11.1722C52.6194 10.4832 52.9545 9.76459 53.7304 9.76459Z" fill="#74271D"/>
<path d="M56.2969 12.9768C56.4905 12.9915 56.9085 13.0224 57.3118 13.0224C58.0209 13.0224 59.2147 12.903 59.2147 11.9512C59.2147 11.427 58.8261 11.1267 58.2973 11.053V11.0382C58.7072 10.9484 59.0504 10.6709 59.0504 10.2218C59.0504 9.41342 58.0502 9.31555 57.4466 9.31555C57.022 9.31555 56.5519 9.35309 56.2982 9.39733V12.9781L56.2969 12.9768ZM56.9232 9.80086C57.0794 9.78611 57.2143 9.77136 57.4306 9.77136C58.0876 9.77136 58.4001 9.94296 58.4001 10.3036C58.4001 10.7299 57.9007 10.8734 57.4159 10.8734H56.9232V9.8022V9.80086ZM56.9152 11.3064H57.3932C58.0195 11.3064 58.5417 11.419 58.5417 11.9432C58.5417 12.4673 57.8846 12.5719 57.4453 12.5719C57.237 12.5719 57.1021 12.5639 56.9152 12.5424V11.3064Z" fill="#74271D"/>
<path d="M60.0267 9.35168V12.962C60.2951 12.9915 60.6317 13.0143 60.9962 13.0143C61.4743 13.0143 62.0552 12.9325 62.4504 12.5946C62.6815 12.4003 62.823 12.1375 62.823 11.7554C62.823 10.8639 62.0391 10.5422 61.2633 10.5422C61.0243 10.5422 60.8159 10.5569 60.6744 10.5877V9.35168H60.0254H60.0267ZM60.6757 11.0516C60.8106 11.0288 60.9735 11.0141 61.1605 11.0141C61.6532 11.0141 62.1754 11.1937 62.1754 11.7782C62.1754 12.3399 61.6305 12.5491 61.1311 12.5491C60.9441 12.5491 60.8026 12.5343 60.6757 12.5196V11.0516ZM63.2797 9.35168V12.9767H63.9287V9.35168H63.2797Z" fill="#74271D"/>
<path d="M64.9877 9.35175V12.9768H65.7408C66.1294 12.34 66.5247 11.6442 66.8679 11.0825C67.0762 10.7152 67.2338 10.4229 67.4648 9.95905H67.4875C67.4581 10.5436 67.4421 10.8506 67.4421 11.4418V12.9768H68.0684V9.35175H67.3005L66.1735 11.2246C65.9344 11.6442 65.8076 11.8989 65.5913 12.34L65.5686 12.332C65.5979 11.8158 65.6059 11.4552 65.6059 10.8787V9.35041H64.9863L64.9877 9.35175ZM65.5552 7.87573C65.5846 8.39187 65.8383 8.80478 66.4953 8.80478C67.0695 8.80478 67.4581 8.48974 67.4875 7.87573H67.0174C66.9801 8.20552 66.8305 8.4455 66.51 8.4455C66.2122 8.4455 66.0546 8.19882 66.0319 7.87573H65.5539H65.5552Z" fill="#74271D"/>
<path d="M70.7031 9.35168V12.9767H73.4647L73.4941 14.131H74.0029L74.0402 12.4874L73.665 12.4807V9.35168H73.016V12.4606H71.3521V9.35168H70.7031Z" fill="#74271D"/>
<path d="M77.6939 11.2848C77.7019 11.2178 77.7166 11.1119 77.7166 10.9778C77.7166 10.3116 77.4028 9.2699 76.225 9.2699C75.1727 9.2699 74.5317 10.1306 74.5317 11.2245C74.5317 12.3185 75.1954 13.0518 76.3078 13.0518C76.882 13.0518 77.2773 12.9325 77.5083 12.8266L77.3961 12.3547C77.1504 12.4592 76.866 12.5423 76.3959 12.5423C75.7389 12.5423 75.1727 12.175 75.158 11.2835H77.6953L77.6939 11.2848ZM75.1647 10.813C75.2168 10.3558 75.5079 9.7418 76.1716 9.7418C76.9101 9.7418 77.089 10.3933 77.0823 10.813H75.1647Z" fill="#74271D"/>
<path d="M78.5137 9.35168V12.9767H79.1627V11.3371H80.8786V12.9767H81.5276V9.35168H80.8786V10.813H79.1627V9.35168H78.5137Z" fill="#74271D"/>
<path d="M82.1179 9.35168V9.87587H83.2436V12.9767H83.8926V9.87587H85.0197V9.35168H82.1179Z" fill="#74271D"/>
<path d="M85.5938 14.4594H86.2428V12.4901H86.2575C86.4738 12.8494 86.8918 13.0598 87.3686 13.0598C88.2192 13.0598 89.0097 12.4163 89.0097 11.1119C89.0097 10.0113 88.3527 9.2699 87.4807 9.2699C86.8918 9.2699 86.4658 9.53266 86.1974 9.97372H86.1827L86.1534 9.35168H85.5645C85.5791 9.69621 85.5938 10.0702 85.5938 10.5354V14.4594ZM86.2428 10.8786C86.2428 10.7888 86.2655 10.691 86.2882 10.6092C86.4151 10.1145 86.8331 9.79274 87.2804 9.79274C87.9748 9.79274 88.3554 10.4148 88.3554 11.1414C88.3554 11.9726 87.9521 12.5423 87.2591 12.5423C86.789 12.5423 86.3937 12.2273 86.2749 11.7715C86.2602 11.6897 86.2455 11.5999 86.2455 11.502V10.88L86.2428 10.8786Z" fill="#74271D"/>
</svg>

<svg xmlns="http://www.w3.org/2000/svg" fill="none" viewBox="0 0.96 89.01 43.85"><path fill-rule="evenodd" clip-rule="evenodd" d="M40.44 44.803c-2.609-7.002-5.514-21.737 1.818-24.836 10.486-4.432 10.498 18.625-3.091 8.951.625 3.551 3.815 4.825 8.154 4.295 8.883-1.173 7.882-16.617-3.376-16.154-12.93.53-10.355 24.871-3.504 27.744Z" fill="#74271D"/><path fill-rule="evenodd" clip-rule="evenodd" d="M70.165 28.781c-1.978.957-1.625 1.125-3.893 2.08-7.625 2.351-10.922-5.584-7.101-9.536 6.486-6.71 14.22 4.67 3.185 5.148l-2.846.46c3.927 2.316 11.538 1.008 10.694-5.088-.713-5.15-8.052-6.293-11.862-3.083-3.873 3.261-4.258 9.822-.213 12.924 4.012 3.077 11.34 1.861 12.036-2.905ZM23.053 2.433c3.532 1.315 6.747 4.078 8.767 7.25 1.674 2.63 2.62 5.667 2.426 8.806-.824 13.246-12.05 17.96-23.652 17.678l-1.011-.024-.661-.77C4.892 30.683.525 24.93.062 18.513-.336 13.024 1.147 7.523 5.633 4.043c5.001-3.88 11.731-3.73 17.42-1.61l-.001-.001Z" fill="#74271D"/><path fill-rule="evenodd" clip-rule="evenodd" d="M22.26 4.58c4.943 1.842 10.1 7.482 9.71 13.766-.944 15.153-16.762 15.64-21.321 15.531-2.682-3.12-7.855-9.189-8.313-15.531C1.436 5.893 11.33.509 22.26 4.58Z" fill="#E84F22"/><path fill-rule="evenodd" clip-rule="evenodd" d="M10.938 5.12c1.517 4.65 14.673 10.684 19.25 9.1-2.829-7.433-12.728-11.293-19.25-9.1Z" fill="#FFCBA1"/><path fill-rule="evenodd" clip-rule="evenodd" d="m80.574 27.822-.032.05c-.176.268-.351.538-.527.808-.147.223-.296.447-.448.668-.11.159-.219.32-.344.467-.703.82-1.422 1.626-2.281 2.284-.948.728-2.02 1.235-3.232 1.265a4.265 4.265 0 0 1-.435-.015 3.404 3.404 0 0 1-.331-.036c-.104-.02-.247-.053-.258-.183-.005-.063.03-.118.081-.151a17.614 17.614 0 0 0 4.593-4.342 20.69 20.69 0 0 0 1.276-1.973c.257-.449.496-.906.742-1.362-.245-.454-.484-.912-.742-1.362-.39-.68-.811-1.34-1.276-1.972a17.636 17.636 0 0 0-4.593-4.342.165.165 0 0 1-.08-.151c.01-.13.153-.164.257-.183a5.275 5.275 0 0 1 .767-.05c1.21.027 2.281.534 3.23 1.264.858.658 1.58 1.466 2.282 2.284.125.146.235.308.344.466.153.222.3.445.448.67l.527.808c.01.016.022.032.032.05l.032-.05c.177-.27.351-.54.528-.809.147-.224.295-.447.447-.669.11-.158.22-.32.345-.466.702-.82 1.422-1.626 2.28-2.284.948-.729 2.02-1.235 3.232-1.265.146-.004.291.004.435.015.111.008.222.017.331.036.105.019.248.052.258.183a.167.167 0 0 1-.081.151 17.618 17.618 0 0 0-4.593 4.342 20.678 20.678 0 0 0-1.276 1.972c-.257.45-.496.907-.741 1.362.244.455.483.913.74 1.363.39.68.813 1.34 1.277 1.972a17.639 17.639 0 0 0 4.593 4.342.165.165 0 0 1 .081.151c-.01.13-.153.164-.258.183a5.232 5.232 0 0 1-.766.051c-1.211-.029-2.282-.535-3.232-1.265-.857-.658-1.578-1.466-2.28-2.284-.126-.146-.235-.308-.345-.467-.152-.22-.3-.445-.447-.668l-.528-.809a1.648 1.648 0 0 1-.032-.05Z" fill="#74271D"/><path d="M37.773 9.352v.524h1.125v3.1h.65v-3.1h1.127v-.524h-2.902ZM42.682 9.27c-1 0-1.791.712-1.791 1.925 0 1.146.753 1.865 1.73 1.865.874 0 1.798-.585 1.798-1.925 0-1.109-.701-1.865-1.739-1.865h.002Zm-.015.495c.776 0 1.082.778 1.082 1.393 0 .816-.47 1.407-1.097 1.407-.64 0-1.096-.6-1.096-1.393 0-.689.335-1.407 1.11-1.407ZM45.248 14.46h.65v-1.97h.014c.216.36.634.57 1.11.57.852 0 1.642-.644 1.642-1.948 0-1.1-.657-1.842-1.529-1.842-.589 0-1.015.263-1.283.704h-.015l-.03-.622h-.588c.014.344.03.718.03 1.183v3.924Zm.65-3.581c0-.09.022-.188.044-.27.127-.495.545-.816.993-.816.694 0 1.075.622 1.075 1.348 0 .832-.404 1.401-1.097 1.401-.47 0-.865-.315-.984-.77a1.498 1.498 0 0 1-.03-.27v-.622l-.002-.001ZM49.477 9.352v3.625h.65V9.884h1.567v-.532h-2.217ZM53.745 9.27c-1 0-1.79.712-1.79 1.925 0 1.146.753 1.865 1.73 1.865.873 0 1.797-.585 1.797-1.925 0-1.109-.7-1.865-1.738-1.865h.001Zm-.015.495c.776 0 1.082.778 1.082 1.393 0 .816-.47 1.407-1.096 1.407-.641 0-1.097-.6-1.097-1.393 0-.689.336-1.407 1.111-1.407ZM56.297 12.977c.194.014.611.045 1.015.045.709 0 1.903-.119 1.903-1.07 0-.525-.389-.825-.918-.899v-.015c.41-.09.753-.367.753-.816 0-.809-1-.906-1.603-.906a7.77 7.77 0 0 0-1.149.081v3.581l-.001-.001Zm.626-3.176c.156-.015.291-.03.508-.03.657 0 .97.172.97.533 0 .426-.5.57-.985.57h-.493V9.8Zm-.008 1.505h.478c.627 0 1.149.113 1.149.637s-.657.629-1.097.629c-.208 0-.343-.008-.53-.03v-1.236ZM60.027 9.352v3.61c.268.03.605.052.97.052.477 0 1.058-.082 1.453-.42.231-.194.373-.457.373-.839 0-.891-.784-1.213-1.56-1.213-.239 0-.447.015-.589.046V9.352h-.649.002Zm.649 1.7c.135-.023.297-.038.484-.038.493 0 1.015.18 1.015.764 0 .562-.544.771-1.044.771a3.71 3.71 0 0 1-.455-.03v-1.467Zm2.604-1.7v3.625h.649V9.352h-.65ZM64.988 9.352v3.625h.753c.388-.637.784-1.333 1.127-1.895.208-.367.366-.66.597-1.123h.022c-.029.585-.045.892-.045 1.483v1.535h.626V9.352h-.767l-1.127 1.873c-.24.42-.366.674-.583 1.115l-.022-.008c.029-.516.037-.877.037-1.453V9.35h-.62l.002.002Zm.567-1.476c.03.516.283.929.94.929.575 0 .963-.315.992-.93h-.47c-.037.33-.186.57-.507.57-.298 0-.455-.246-.478-.57h-.478.001ZM70.703 9.352v3.625h2.762l.03 1.154h.508l.037-1.644-.375-.006V9.35h-.649v3.11h-1.664V9.35h-.649ZM77.694 11.285c.008-.067.023-.173.023-.307 0-.666-.314-1.708-1.492-1.708-1.052 0-1.693.86-1.693 1.955 0 1.094.663 1.827 1.776 1.827.574 0 .97-.12 1.2-.225l-.112-.472c-.246.104-.53.187-1 .187-.657 0-1.223-.367-1.238-1.258h2.537-.001Zm-2.53-.472c.053-.457.344-1.071 1.008-1.071.738 0 .917.651.91 1.071h-1.917ZM78.514 9.352v3.625h.649v-1.64h1.716v1.64h.649V9.352h-.65v1.461h-1.715V9.352h-.65ZM82.118 9.352v.524h1.126v3.1h.649v-3.1h1.127v-.524h-2.902ZM85.594 14.46h.649v-1.97h.014c.217.36.635.57 1.112.57.85 0 1.64-.644 1.64-1.948 0-1.1-.656-1.842-1.528-1.842-.59 0-1.015.263-1.284.704h-.014l-.03-.622h-.589c.015.344.03.718.03 1.183v3.924Zm.649-3.581c0-.09.023-.188.045-.27.127-.495.545-.816.992-.816.695 0 1.075.622 1.075 1.348 0 .832-.403 1.401-1.096 1.401-.47 0-.865-.315-.984-.77a1.498 1.498 0 0 1-.03-.27v-.622l-.002-.001Z" fill="#74271D"/></svg>
